SF_Symbols/perspective.svg

<?xml version="1.0" encoding="UTF-8"?>
<svg xmlns="http://www.w3.org/2000/svg" xmlns:xlink="http://www.w3.org/1999/xlink" width="24" height="24" viewBox="0 0 24 24" version="1.1">
<g id="surface1">
<path style=" stroke:none;fill-rule:nonzero;fill:rgb(100%,100%,100%);fill-opacity:1;" d="M 6.882812 18.777344 L 17.109375 20.570312 C 17.710938 20.675781 18.222656 20.628906 18.648438 20.429688 C 19.070312 20.226562 19.398438 19.898438 19.621094 19.445312 C 19.851562 18.988281 19.96875 18.425781 19.96875 17.757812 L 19.96875 6.992188 C 19.96875 6.289062 19.859375 5.707031 19.640625 5.25 C 19.421875 4.792969 19.101562 4.476562 18.675781 4.292969 C 18.257812 4.105469 17.734375 4.066406 17.109375 4.171875 L 6.882812 5.972656 C 5.949219 6.132812 5.242188 6.445312 4.753906 6.910156 C 4.265625 7.371094 4.023438 7.996094 4.023438 8.785156 L 4.023438 15.957031 C 4.023438 16.738281 4.265625 17.363281 4.753906 17.832031 C 5.242188 18.292969 5.949219 18.609375 6.882812 18.777344 Z M 6.804688 17.363281 C 6.363281 17.289062 6.023438 17.136719 5.785156 16.914062 C 5.554688 16.679688 5.4375 16.367188 5.4375 15.976562 L 5.4375 8.765625 C 5.4375 8.371094 5.554688 8.0625 5.785156 7.835938 C 6.023438 7.605469 6.363281 7.453125 6.804688 7.378906 L 17.183594 5.585938 C 17.628906 5.511719 17.964844 5.597656 18.195312 5.839844 C 18.433594 6.078125 18.554688 6.457031 18.554688 6.976562 L 18.554688 17.773438 C 18.554688 18.269531 18.429688 18.640625 18.1875 18.890625 C 17.949219 19.140625 17.617188 19.230469 17.183594 19.164062 Z M 12 23.578125 C 12.210938 23.578125 12.382812 23.511719 12.507812 23.382812 C 12.636719 23.25 12.703125 23.070312 12.703125 22.835938 L 12.703125 1.914062 C 12.703125 1.675781 12.636719 1.492188 12.507812 1.359375 C 12.382812 1.226562 12.210938 1.164062 12 1.164062 C 11.773438 1.164062 11.601562 1.226562 11.476562 1.359375 C 11.351562 1.492188 11.289062 1.675781 11.289062 1.914062 L 11.289062 22.835938 C 11.289062 23.070312 11.351562 23.25 11.476562 23.382812 C 11.601562 23.511719 11.773438 23.578125 12 23.578125 Z M 1.40625 13.078125 L 22.585938 13.078125 C 22.820312 13.078125 23.007812 13.015625 23.136719 12.890625 C 23.269531 12.757812 23.335938 12.585938 23.335938 12.375 C 23.335938 12.148438 23.269531 11.976562 23.136719 11.851562 C 23.007812 11.726562 22.820312 11.664062 22.585938 11.664062 L 1.40625 11.664062 C 1.175781 11.664062 0.992188 11.726562 0.851562 11.851562 C 0.722656 11.976562 0.65625 12.148438 0.65625 12.375 C 0.65625 12.585938 0.722656 12.757812 0.851562 12.890625 C 0.992188 13.015625 1.175781 13.078125 1.40625 13.078125 Z M 1.40625 13.078125 "/>
</g>
</svg>

<svg xmlns="http://www.w3.org/2000/svg" width="24" height="24"><path style="stroke:none;fill-rule:nonzero;fill:#fff;fill-opacity:1" d="m6.883 18.777 10.226 1.793c.602.106 1.114.059 1.54-.14.43-.207.769-.555.972-.985.23-.457.348-1.02.348-1.687V6.992c0-.703-.11-1.285-.328-1.742-.22-.457-.54-.773-.965-.957-.418-.188-.942-.227-1.567-.121l-10.226 1.8c-.934.16-1.64.473-2.13.938-.487.461-.73 1.086-.73 1.875v7.172c0 .781.243 1.406.73 1.875.49.461 1.196.777 2.13.945Zm-.078-1.414c-.442-.074-.782-.226-1.02-.449-.23-.234-.348-.547-.348-.937V8.766c0-.395.118-.704.348-.93.238-.23.578-.383 1.02-.457l10.379-1.793c.445-.074.78.012 1.011.254.239.238.36.617.36 1.137v10.796c0 .497-.125.868-.367 1.118-.239.25-.57.34-1.004.273ZM12 23.578a.682.682 0 0 0 .508-.195c.129-.133.195-.313.195-.547V1.914c0-.238-.066-.422-.195-.555-.125-.132-.297-.195-.508-.195-.227 0-.398.063-.523.195-.125.133-.188.317-.188.555v20.922c0 .234.063.414.188.547.125.129.296.195.523.195Zm-10.594-10.5h21.18c.234 0 .422-.062.55-.187a.703.703 0 0 0 .2-.516c0-.227-.066-.398-.2-.523-.128-.125-.316-.188-.55-.188H1.406c-.23 0-.414.063-.554.188-.13.125-.196.296-.196.523 0 .21.067.383.196.516.14.125.324.187.554.187Zm0 0"/></svg>
